configs/conferences/jh-ffm-2022/alpaka.svg

<svg version="1.1" xmlns="http://www.w3.org/2000/svg" xmlns:xlink="http://www.w3.org/1999/xlink" width="629.33333" height="629.33333" viewBox="157.33333,279.83333,629.33333,629.33333"><g fill="none" fill-rule="nonzero" stroke="none" stroke-width="1" stroke-linecap="butt" stroke-linejoin="miter" stroke-miterlimit="10" stroke-dasharray="" stroke-dashoffset="0" font-family="none" font-weight="none" font-size="none" text-anchor="none" style="mix-blend-mode: normal"><g id="Ebene_1"><path d="M328.9697,851.95455v0v0v-57.21212h-57.21212v-57.21212h-57.21212v-171.63636h57.21212v-57.21212h400.48485v57.21212h57.21212v171.63636h-57.21212v57.21212h-57.21212v57.21212z" fill="#ffffff"/><g fill="#000000"><rect x="33.25" y="76.23808" transform="scale(8.17316,8.17316)" width="7" height="7"/><rect x="75.25" y="76.23808" transform="scale(8.17316,8.17316)" width="7" height="7"/><path d="M500.60606,737.5303h-57.21212v-57.21212h-57.21212v114.42424h171.63636v-114.42424h-57.21212z"/></g><path d="M729.45455,337.04545v-57.21212h-114.42424v57.21212h-57.21212v57.21212h-171.63636v-57.21212h-57.21212v-57.21212h-114.42424v57.21212h-57.21212v457.69697h57.21212v57.21212h57.21212v57.21212h400.48485v-57.21212h57.21212v-57.21212h57.21212v-457.69697zM729.45455,737.5303h-57.21212v57.21212h-57.21212v57.21212h-286.06061v-57.21212h-57.21212v-57.21212h-57.21212v-171.63636h57.21212v-57.21212h400.48485v57.21212h57.21212z" fill="#ea680c"/></g></g></svg>

<?xml version="1.0" encoding="UTF-8" standalone="no"?>
<svg
   xmlns:dc="http://purl.org/dc/elements/1.1/"
   xmlns:cc="http://creativecommons.org/ns#"
   xmlns:rdf="http://www.w3.org/1999/02/22-rdf-syntax-ns#"
   xmlns:svg="http://www.w3.org/2000/svg"
   xmlns="http://www.w3.org/2000/svg"
   xmlns:sodipodi="http://sodipodi.sourceforge.net/DTD/sodipodi-0.dtd"
   xmlns:inkscape="http://www.inkscape.org/namespaces/inkscape"
   version="1.1"
   width="629.33333"
   height="629.33333"
   viewBox="157.33333,279.83333,629.33333,629.33333"
   id="svg872"
   sodipodi:docname="alpaka.svg"
   inkscape:version="0.92.5 (2060ec1f9f, 2020-04-08)"
   inkscape:export-filename="/home/sophie/Pictures/jugendhackt/alpaka_51509d.png"
   inkscape:export-xdpi="90"
   inkscape:export-ydpi="90">
  <metadata
     id="metadata878">
    <rdf:RDF>
      <cc:Work
         rdf:about="">
        <dc:format>image/svg+xml</dc:format>
        <dc:type
           rdf:resource="http://purl.org/dc/dcmitype/StillImage" />
      </cc:Work>
    </rdf:RDF>
  </metadata>
  <defs
     id="defs876" />
  <sodipodi:namedview
     pagecolor="#ffffff"
     bordercolor="#666666"
     borderopacity="1"
     objecttolerance="10"
     gridtolerance="10"
     guidetolerance="10"
     inkscape:pageopacity="0"
     inkscape:pageshadow="2"
     inkscape:window-width="1863"
     inkscape:window-height="1056"
     id="namedview874"
     showgrid="false"
     inkscape:zoom="1.3458687"
     inkscape:cx="170.52184"
     inkscape:cy="314.66666"
     inkscape:window-x="1977"
     inkscape:window-y="1104"
     inkscape:window-maximized="1"
     inkscape:current-layer="g870" />
  <g
     fill="none"
     fill-rule="nonzero"
     stroke="none"
     stroke-width="1"
     stroke-linecap="butt"
     stroke-linejoin="miter"
     stroke-miterlimit="10"
     stroke-dasharray=""
     stroke-dashoffset="0"
     font-family="none"
     font-weight="none"
     font-size="none"
     text-anchor="none"
     style="mix-blend-mode: normal"
     id="g870">
    <path
       style="fill:#ffffff"
       inkscape:connector-curvature="0"
       id="path857"
       d="m 328.9697,851.95455 v 0 0 -57.21212 H 271.75758 V 737.53031 H 214.54546 V 565.89395 h 57.21212 v -57.21212 h 400.48485 v 57.21212 h 57.21212 v 171.63636 h -57.21212 v 57.21212 h -57.21212 v 57.21212 z" />
    <g
       style="fill:#000000"
       id="g865">
      <rect
         id="rect859"
         height="7"
         width="7"
         transform="scale(8.17316)"
         y="76.238083"
         x="33.25" />
      <rect
         id="rect861"
         height="7"
         width="7"
         transform="scale(8.17316)"
         y="76.238083"
         x="75.25" />
      <path
         inkscape:connector-curvature="0"
         id="path863"
         d="M 500.60606,737.5303 H 443.39394 V 680.31818 H 386.18182 V 794.74242 H 557.81818 V 680.31818 h -57.21212 z" />
    </g>
    <path
       style="fill:#51509d;fill-opacity:1"
       inkscape:connector-curvature="0"
       id="path867"
       d="M 729.45455,337.04545 V 279.83333 H 615.03031 v 57.21212 h -57.21212 v 57.21212 H 386.18183 V 337.04545 H 328.96971 V 279.83333 H 214.54547 v 57.21212 h -57.21212 v 457.69697 h 57.21212 v 57.21212 h 57.21212 v 57.21212 h 400.48485 v -57.21212 h 57.21212 v -57.21212 h 57.21212 V 337.04545 Z m 0,400.48485 h -57.21212 v 57.21212 h -57.21212 v 57.21212 H 328.9697 V 794.74242 H 271.75758 V 737.5303 H 214.54546 V 565.89394 h 57.21212 v -57.21212 h 400.48485 v 57.21212 h 57.21212 z" />
  </g>
</svg>
